X: 85
T: Piano Sonata no. 27 in E minor, Allegro
C: Ludwig van Beethoven
%%abc-version 2.0
%%abcx-abcm2ps-target-version 5.9.1 (29 Sep 2008)
%%abc-creator hum2abc beta
%%abcx-conversion-date 2021/01/11 11:42:12
%%abc-edited-by Craig Stuart Sapp
%%abc-edited-by Craig Stuart Sapp
%%abcx-initial-encoding-date 2006/08/01
%%gracespace 0 6 6
%%humdrum-veritas 703547797
%%humdrum-veritas-data 3126601081
%%linebreak <none>
%%barnumbers 0
L: 1/8
M: 3/4
Q: "Allegro" 1/4=144
%%staves {1 2}
V: 1 clef=treble
V: 2 clef=bass
K: G
[V:1] [G,B,EG] z [I:setbarnb 1]| 
[V:2] [E,,E,] z | 
[V:1] G2>F2 [G,E] z & [G,4B,4E4]x2 | 
[V:2] [E,,4E,4][E,,E,] z | 
[V:1] [A,FA] zz2[F2A2] | 
[V:2] [D,,D,] zz2D2 | 
[V:1] [F2A2]>G2.[F2A2] | 
[V:2] [C2D2]>[B,2D2].[A,2C2] | 
[V:1] .[G2B2]z2[B,DGB] z | 
[V:2] .[G,2B,2]z2[G,,G,] z | 
[V:1] B2>A2 [B,G] z & [B,4D4G4]x2 | 
[V:2] [G,,4G,4][G,,,G,,] z | 
[V:1] [^C^A^c] zz2[A2c2] | 
[V:2] [F,,,F,,] zz2[K:clef=treble]F2 | 
[V:1] [^A2^c2]>B2.[A2c2] | 
[V:2] [E2F2]>[D2F2].[^C2E2] | 
[V:1] .[B2d2]z2d2- | 
[V:2] .[B,2D2]z2z2 | 
[V:1] d2g2e2 | 
[V:2] G6 & D4E2- | 
[V:1] d2=c2c2- | 
[V:2] G4F2- & [A,4E4]_E2 | 
[V:1] c2a2c2- | 
[V:2] F4F2 & D4x2 | 
[V:1] c2B2B2- | 
[V:2] G4[K:clef=bass]G,2 | 
[V:1] B2G2G2- | 
[V:2] E,4E2 | 
[V:1] G2E2E2- | 
[V:2] C4C,2- | 
[V:1] E2[K:clef=bass]G,2E,2 | 
[V:2] [C,,6C,6] | 
[V:1] !fermata![^D,4B,4][K:clef=treble][e2e'2]- | 
[V:2] !fermata![B,,,4B,,4]z2 | 
[V:1] [e2e'2]>[^d2^d'2][e2e'2] | 
[V:2] [E,6-B,6] & G,,6 | 
[V:1] [C4E4F4][^C2E2F2] | 
[V:2] E,6 & A,,4^A,,2 | 
[V:1] F2>G2AG & [A,6^D6] | 
[V:2] B,,6 | 
[V:1] F2E2[e2e'2]- | 
[V:2] [C,4G,4]B,,A,, | 
[V:1] [e2e'2]>[^d2^d'2][e2e'2] | 
[V:2] [E,6B,6] & G,,4^G,,2 | 
[V:1] [C4E4F4][^C2E2F2] | 
[V:2] A,,4^A,,2 | 
[V:1] F2>A2GF & [A,6^D6] | 
[V:2] [B,,,6B,,6] | 
[V:1] [G,2E2]!fermata!z2[B,2B2] | 
[V:2] [E,,2E,2]!fermata!z2[B,,,2B,,2] | 
[V:1] [B,4B4][E2e2] | 
[V:2] [B,,,4B,,4][E,,2E,2] | 
[V:1] [E4e4][B2b2] | 
[V:2] [E,,4E,4][B,,2B,2] | 
[V:1] [B4b4][e2e'2] | 
[V:2] [B,,4B,4][E,2E2] | 
[V:1] [e4e'4][=fbd'=f'] z | 
[V:2] [E,4E4][G,B,D=F] z | 
[V:1] [=f3b3d'3=f'3]e'/d'/ =c'/b/a/g/ | 
[V:2] [G,2B,2D2=F2]>z2z2 | 
[V:1] =f/e/d/c/ (3:2:6B/A/G/=F/E/D/ (5:4:5C/B,/A,/G,/^F,/ | 
[V:2] z6 | 
[V:1] .G, zz2[G,D=F] z | 
[V:2] z2z2[B,,,B,,] z | 
[V:1] [G,CE] zz2[d^gbd'] z | 
[V:2] [C,,C,] zz2[E,^G,B,D] z | 
[V:1] [d3^g3b3d'3]c'/b/ a/g/^f/e/ | 
[V:2] [E,2^G,2B,2D2]>z2z2 | 
[V:1] d/c/B/A/ (3:2:6^G/F/E/D/C/B,/[K:clef=bass] (5:4:5A,/^G,/F,/E,/^D,/ | 
[V:2] z6 | 
[V:1] E,2z2[E,B,=D] z | 
[V:2] z2z2[^G,,,^G,,] z | 
[V:1] [E,A,C] zz2[K:clef=treble]_b2 | 
[V:2] [A,,,A,,] zz2_B,2 | 
[V:1] _b3a/g/ =f/_e/d/c/ | 
[V:2] _B,6- | 
[V:1] _B/A/G/F/ (3_EDC_B,2 | 
[V:2] B,2z2z2[K:clef=treble] | 
[V:1] _B,6- | 
[V:2] z2z2E2 | 
[V:1] B,4G2 | 
[V:2] E4[^A,2E2] | 
[V:1] G4[G2^c2] | 
[V:2] [^A,4E4][A,2E2] | 
[V:1] [G4^c4][c2e2g2] | 
[V:2] [^A,4E4][A,2^C2E2G2] | 
[V:1] g4f2 & [^c6e6]- | 
[V:2] G4F2 & [^A,6^C6E6]- | 
[V:1] ^e4f2 & [c4e4][^c2=e2] | 
[V:2] ^E4F2 & [A,4C4=E4][^A,2^C2=E2] | 
[V:1] [B6d6f6] | 
[V:2] [B,DF][B,DF][B,DF][B,DF][B,DF][B,DF][K:clef=bass] | 
[V:1] [B6f6b6] | 
[V:2] [D,F,B,][D,F,B,][D,F,B,][D,F,B,][D,F,B,][D,F,B,] | 
[V:1] [FB] z [=C=c] zz2 | 
[V:2] [^D,F,A,][D,F,A,][E,G,][E,G,][E,G,][E,G,] | 
[V:1] [Gc] z [^D^d] zz2 | 
[V:2] [E,G,B,][E,G,B,][F,A,][F,A,][F,A,][F,A,] | 
[V:1] [A^d] z [Ee] zz2 | 
[V:2] [F,A,=C][F,A,C][G,B,][G,B,][G,B,][G,B,] | 
[V:1] [Be] z [^E^e] zz2 | 
[V:2] [^G,B,D][G,B,D][G,B,^C][G,B,C][G,B,C][G,B,C] | 
[V:1] [^GB=e][GB^e].[GBe].[GBe].[GBe].[GBe] | 
[V:2] ^CCCCCC | 
[V:1] [^GB^e][GBe][GBe][GBe][GBe][GBe] | 
[V:2] ^CCCCCC | 
[V:1] [f^a^c'=e'f'][gac'e'g'].[gac'e'g'].[gac'e'g'][gac'e'g'][gac'e'g'] | 
[V:2] [F,^A,^CE][F,A,CE][F,A,CE][F,A,CE][F,A,CE][F,A,CE] | 
[V:1] [g^a^c'e'g'][gac'e'g'][gac'e'g'][gac'e'g'][gac'e'g'][gac'e'g'] | 
[V:2] [F,^A,^CE][F,A,CE][F,A,CE][F,A,CE][F,A,CE][F,A,CE] | 
[V:1] [g2g'2][f4f'4]- | 
[V:2] B,,/D/F,/D/ ^C,/E/F,/E/ D,/F/F,/F/ | 
[V:1] [f2f'2][B4b4]- | 
[V:2] B,,/D/F,/D/ ^C,/E/F,/E/ D,/F/F,/F/ | 
[V:1] [B2b2][F4f4]- | 
[V:2] B,,/D/F,/D/ ^C,/E/F,/E/ D,/F/F,/F/ | 
[V:1] [F2f2][B,4B4-] | 
[V:2] B,,/D/F,/D/ ^C,/E/F,/E/ D,/F/F,/F/ | 
[V:1] B2G2F2 | 
[V:2] E,/D/B,/D/ ^E,/D/B,/D/ F,/D/B,/D/ | 
[V:1] F4^A2 | 
[V:2] F,/D/B,/D/ F,/D/B,/D/ F,/E/^C/E/ | 
[V:1] z g2<!accent!g'2f' | 
[V:2] B,,/D/F,/D/ ^C,/E/F,/E/ D,/F/F,/F/ | 
[V:1] z f'2<!accent!^c'2b | 
[V:2] B,,/D/F,/D/ ^C,/E/F,/E/ D,/F/F,/F/ | 
[V:1] z b2<!accent!g2f | 
[V:2] B,,/D/F,/D/ ^C,/E/F,/E/ D,/F/F,/F/ | 
[V:1] z f2<!accent!^c2B | 
[V:2] B,,/D/F,/D/ ^C,/E/F,/E/ D,/F/F,/F/ | 
[V:1] B2G2F2 | 
[V:2] E,/D/B,/D/ ^E,/D/B,/D/ F,/D/B,/D/ | 
[V:1] FDB,G,F,^A, | 
[V:2] F,4[F,,,2F,,2] | 
[V:1] B,2z2z2 | 
[V:2] .[B,,,B,,].[^C,,^C,].[D,,D,].[E,,E,]!sfz![F,,2F,2]- | 
[V:1] !sfz![G,6B,6] | 
[V:2] [F,,6F,6] | 
[V:1] =C4G2- & G,6 | 
[V:2] [E,,6E,6] | 
[V:1] G4F2 & [^A,6^C6E6] | 
[V:2] [F,,6F,6] | 
[V:1] [B,2D2F2]z2z2 | 
[V:2] .[B,,,B,,].[^C,,^C,].[D,,D,].[E,,E,]!sfz![F,,2F,2]- | 
[V:1] !sfz![G,6B,6] | 
[V:2] [F,,6F,6] | 
[V:1] =C4G2- & G,6 | 
[V:2] [E,,6E,6] | 
[V:1] G4F2 & [^A,6^C6E6] | 
[V:2] [F,,6F,6] | 
[V:1] z2z2G2- | 
[V:2] z6 | 
[V:1] G4F2 & [B,6D6] | 
[V:2] [B,,,6B,,6] | 
[V:1] z2z2G2- | 
[V:2] z6 | 
[V:1] G4^A2 & [^C6E6] | 
[V:2] [F,,,6F,,6] | 
[V:1] [B,2D2B2]z2z2 | 
[V:2] [B,,,2B,,2]z2z2 | 
[V:1] [B,2D2B2]z2z2 | 
[V:2] [B,,,2B,,2]z2z2 | 
[V:1] [B,2D2B2]z2z2 | 
[V:2] [B,,,2B,,2]z2z2 | 
[V:1] B6 | 
[V:2] z6 | 
[V:1] B6 | 
[V:2] z6 | 
[V:1] z2z2a2 & B4BB | 
[V:2] z2z2[K:clef=treble].[F2A2] | 
[V:1] a2>g2 f z & BBBBBB | 
[V:2] [F2A2]z2[FA] z | 
[V:1] [g2b2]z2[g2b2] & BBBBBB | 
[V:2] [E2G2]z2[E2G2] | 
[V:1] [^g2b2]>a2 [gb] z & BBBBBB | 
[V:2] [D2=F2]z2[DF] z | 
[V:1] [a2c'2]z2x2 & c2z2[c2c'2] | 
[V:2] [CE] EEEEE | 
[V:1] [c2c'2]>[B2b2] [Aa] z | 
[V:2] EEEEEE & [A,2C2]z2[A,C] z | 
[V:1] [d2d'2]z2[d2d'2] | 
[V:2] =FFFFFF & [_A,2B,2]z2[A,2B,2] | 
[V:1] [d2d'2]>[c2c'2] [dd'] z | 
[V:2] =FFFFFF & [_A,2_B,2]z2[A,2B,2] | 
[V:1] [_e2_e'2]>[d2d'2] [ee'] z | 
[V:2] [G,_B,_E][G,B,E][G,B,E][G,B,E][G,B,E][G,B,E] | 
[V:1] _E2>D2 E z | 
[V:2] [_G,_B,][G,B,][G,B,][G,B,][G,B,][G,B,][K:clef=bass] | 
[V:1] [_E2_G2]>[D2=F2] [EG] z | 
[V:2] [_E,_G,][E,G,][E,G,][E,G,][E,G,][E,G,] | 
[V:1] [_e2_g2]>[d2=f2] [eg] z | 
[V:2] [C,_E,][C,E,][C,E,][C,E,][C,E,][C,E,] | 
[V:1] [c2c'2]>[B2b2] [cc'] z | 
[V:2] [A,,C,][A,,C,][A,,C,][A,,C,][A,,C,][A,,C,] | 
[V:1] A,2>^G,2 A, z | 
[V:2] [^F,,A,,C,][F,,A,,C,][F,,A,,C,][F,,A,,C,][F,,A,,C,][F,,A,,C,] | 
[V:1] [^f2^f'2]>[^e2^e'2] [ff'] z | 
[V:2] [_E,,^F,,A,,C,][E,,F,,A,,C,][E,,F,,A,,C,][E,,F,,A,,C,][E,,F,,A,,C,][E,,F,,A,,C,] | 
[V:1] [F2-A2-c2]>[F2A2B2] [FAc] z | 
[V:2] [=D,,^F,,A,,C,][D,,F,,A,,C,][D,,F,,A,,C,][D,,F,,A,,C,][D,,F,,A,,C,][D,,F,,A,,C,] | 
[V:1] [=F2_A2B2]z .[=AB=f].[G2c2=e2] | 
[V:2] [G,,,G,,][G,,,G,,][G,,,G,,] zz2 | 
[V:1] .[^F2=A2_e2]z .[FAe].[=F2B2d2] | 
[V:2] z [G,,,G,,][G,,,G,,] zz2 | 
[V:1] .[E2G2^c2]z .[_EG=c].[D2G2B2] | 
[V:2] z [G,,,G,,][G,,,G,,] zz2 | 
[V:1] [^CE_B] z [=C_EA] z [CE_A] z | 
[V:2] z [G,,,G,,] z [G,,,G,,] z [G,,,G,,] | 
[V:1] G z ^F z =F z | 
[V:2] z [G,,,G,,] z [A,,,A,,] z [B,,,B,,] | 
[V:1] E z _E z D z | 
[V:2] z [C,,C,] z [^C,,^C,] z [D,,D,] | 
[V:1] ^C z =C z B, z | 
[V:2] z [_E,,_E,] z [=E,,=E,] z [=F,,=F,] | 
[V:1] _B, z A, z _A, z | 
[V:2] z [^F,,^F,] z [G,,G,] z [G,,G,] | 
[V:1] _A,G,G4- | 
[V:2] z6 | 
[V:1] G4G2- | 
[V:2] =F4[B,2F2] | 
[V:1] G2c2A2 | 
[V:2] [C2E2]C2^C2 | 
[V:1] G2=F2F2- | 
[V:2] D2A,2_B,2 | 
[V:1] F2d2=F2- | 
[V:2] =B,2G,2D2 | 
[V:1] F2E2E/G/c/e/ | 
[V:2] _D2C2[_B,2C2-] | 
[V:1] =f/c/A/=F/ A/c/f/a/ a/d/a/d'/ | 
[V:2] [A,2C2][=F,2=F2][^F,2D2] | 
[V:1] a/d/a/_b/ g/d/g/b/ g/_d/g/b/ | 
[V:2] [G,2C2][D,2_B,2][=F,2B,2-] | 
[V:1] g/c/g/_b/ e/c/e/g/ g/e/g/c'/ | 
[V:2] [E,2B,2]G2[C,2_B,2-] | 
[V:1] g/e/g/c'/ a/=f/a/c'/ a/f/a/c'/ ||  
[V:2] [=F,2B,2][F,2A,2]A,,2- ||  
[V:1]  [K:C] a/f/a/d'/ a/f/a/d'/ _b/f/b/d'/ | 
[V:2]  [K:C] A,,2D,2_B,,2 | 
[V:1] =b/f/b/d'/ b/e/b/d'/ b/e/b/d'/ | 
[V:2] A,,2^G,,2G,,2 | 
[V:1] b/e/b/d'/ b/e/b/d'/ b/e/b/d'/ | 
[V:2] x2E,4 & ^G,,2!sfz!E,2G,,2 | 
[V:1] b/e/b/c'/ a/e/a/c'/ a/e/a/c'/ | 
[V:2] x2E,4 & A,,2!sfz!E,2A,,2 | 
[V:1] a/d/a/b/ ^g/d/g/b/ g/d/g/b/ | 
[V:2] x2E,4 & B,,2!sfz!E,2B,,2 | 
[V:1] ^g/c/g/b/ g/a/c/a/ g/a/c/a/ | 
[V:2] x2E,4 & C,2!sfz!E,2C,2 | 
[V:1] a/B/a/b/ a/B/a/b/ a/B/a/b/ | 
[V:2] x2B,4 & ^D,2!sfz!B,2D,2 | 
[V:1] a/B/a/b/ a/B/a/b/ a/B/a/b/ | 
[V:2] x2C4 & E,2!sfz!C2E,2 | 
[V:1] a/B/a/b/ a/B/a/b/ a/B/a/b/ | 
[V:2] x2^D4 & ^F,2!sfz!^D2F,2 | 
[V:1] g/B/g/b/ g/B/g/b/ b/e/b/e'/ | 
[V:2] x2E4[K:clef=treble] & G,2!sfz!E2G,2 | 
[V:1] c'/e/c'/e'/ c'/e/c'/e'/ c'/e/c'/e'/ | 
[V:2] x2^F4 & A,2!sfz!^F2A,2 | 
[V:1] ^c'/g/c'/e'/ c'/g/c'/e'/ c'/g/c'/e'/ | 
[V:2] x2G4 & ^A,2!sfz!G2A,2 | 
[V:1] b/g/b/e'/ g'/^f'/e'/^d'/ e'/d'/e'/f'/ ||  
[V:2] B,2E2G2 & B,4x2 ||  
[V:1]  [K:G] g'/f'/e'/^d'/ g'/f'/e'/d'/ g'/f'/e'/d'/ | 
[V:2]  [K:G] B2e2g2 | 
[V:1] g'/f'/e'/^d'/ e' zz2 | 
[V:2] z2g/f/e/^d/ e z | 
[V:1] g'f'e'^d'e'2 | 
[V:2] z2gfe^d | 
[V:1] g'2f'2e'2 | 
[V:2] e2z2g2 | 
[V:1] ^d'2e'2z2 | 
[V:2] f2e2^d2 | 
[V:1] g'4f'2- | 
[V:2] e2z2z2 | 
[V:1] f'2e'2z2 | 
[V:2] g4f2- | 
[V:1] G4FE | 
[V:2] f2e2z2 | 
[V:1] E2z2z2 | 
[V:2] G4FE | 
[V:1] z2G2FE | 
[V:2] E2z2G2 | 
[V:1] E z z GFE | 
[V:2] FE E z z g | 
[V:1] z g'f'e' z G | 
[V:2] fe z gfe | 
[V:1] FEz2G z | 
[V:2] z[K:clef=bass] G,F,E, E, z | 
[V:1] G2>F2 [G,E] z & [G,4B,4E4]x2 | 
[V:2] [E,,4E,4][E,,E,] z | 
[V:1] [A,FA] zz2[F2A2] | 
[V:2] [D,,D,] zz2D2 | 
[V:1] [F2A2]>G2.[F2A2] | 
[V:2] [C2D2]>[B,2D2].[A,2C2] | 
[V:1] .[G2B2]z2[B,DGB] z | 
[V:2] .[G,2B,2]z2[G,,G,] z | 
[V:1] B2>A2 [B,G] z & [B,4D4G4]x2 | 
[V:2] [G,,4G,4][G,,,G,,] z | 
[V:1] [^C^A^c] zz2[A2c2] | 
[V:2] [F,,,F,,] zz2[K:clef=treble]F2 | 
[V:1] [^A2^c2]>B2.[A2c2] | 
[V:2] [E2F2]>[D2F2].[^C2E2] | 
[V:1] .[B2d2]z2d2- | 
[V:2] .[B,2D2]z2z2 | 
[V:1] d2g2e2 | 
[V:2] G6- & D4E2- | 
[V:1] d2=c2c2- | 
[V:2] G4F2 & [A,4E4]_E2 | 
[V:1] c2a2c2- | 
[V:2] F4F2 & D4x2 | 
[V:1] c2B2B2- | 
[V:2] G4[K:clef=bass]G,2 | 
[V:1] B2G2G2- | 
[V:2] E,4E2 | 
[V:1] G2E2E2- | 
[V:2] C4C,2- | 
[V:1] E2[K:clef=bass]G,2E,2 | 
[V:2] [C,,6C,6] | 
[V:1] !fermata![^D,4B,4][K:clef=treble][e2e'2]- | 
[V:2] !fermata![B,,,4B,,4]z2 | 
[V:1] [e2e'2]>[^d2^d'2][e2e'2] | 
[V:2] B,6 & E,6- | 
[V:1] [C4E4F4][^C2E2F2] | 
[V:2] E,6 & A,,4^A,,2 | 
[V:1] F2>G2AG & [A,6^D6] | 
[V:2] B,,6 | 
[V:1] F2E2[e2e'2]- | 
[V:2] [C,4G,4]B,,A,, | 
[V:1] [e2e'2]>[^d2^d'2][e2e'2] | 
[V:2] [B,6E,6] & G,,4^G,,2 | 
[V:1] [C4E4F4][^C2E2F2] | 
[V:2] A,,4^A,,2 | 
[V:1] F2>A2GF & [A,6^D6] | 
[V:2] [B,,,6B,,6] | 
[V:1] [G,2E2]!fermata!z2[G,2G2] | 
[V:2] [E,,2E,2]!fermata!z2[G,,,2G,,2] | 
[V:1] [G,4G4][C2c2] | 
[V:2] [G,,,4G,,4][C,,2C,2] | 
[V:1] [C4c4][G2g2] | 
[V:2] [C,,4C,4][G,,2G,2] | 
[V:1] [G4g4][c2c'2] | 
[V:2] [G,,4G,4][C,2C2] | 
[V:1] [c4c'4][=fd'=f'] z | 
[V:2] [C,4C4][B,D=FG] z | 
[V:1] [=f3d'3=f'3]e'/d'/ c'/b/a/g/ | 
[V:2] [B,2D2=F2G2]>z2z2 | 
[V:1] =f/e/d/c/ (3:2:6B/A/G/=F/E/D/ (5:4:5C/B,/A,/G,/F,/ | 
[V:2] z6 | 
[V:1] G, zz2[G,D=F] z | 
[V:2] z2z2[B,,,B,,] z | 
[V:1] [G,CE] zz2[d^gbd'] z | 
[V:2] [C,,C,] zz2[E,^G,B,D] z | 
[V:1] [d3^g3b3d'3]c'/b/ a/g/^f/e/ | 
[V:2] [E,2^G,2B,2D2]>z2z2 | 
[V:1] d/c/B/A/ (3:2:6^G/F/E/D/C/B,/[K:clef=bass] (5:4:5A,/^G,/F,/E,/^D,/ | 
[V:2] z6 | 
[V:1] E,2z2[E,B,D] z | 
[V:2] z2z2[^G,,,^G,,] z | 
[V:1] [E,A,C] zz2[K:clef=treble]c'2 | 
[V:2] [A,,,A,,] zz2[=F,,2C,2A,2] | 
[V:1] c'3_b/a/ g/=f/e/d/ | 
[V:2] [=F,,6C,6A,6]- | 
[V:1] c/_B/A/G/ (5:4:5=F/E/D/C/_B,/A,2 | 
[V:2] [=F,,4C,4A,4][=F,,2C,2] | 
[V:1] A,4[A,2^D2] | 
[V:2] [=F,,4C,4][F,,2C,2] | 
[V:1] [A,4^D4][D2A2] | 
[V:2] [=F,,4C,4][^F,,2C,2A,2] | 
[V:1] [^D4A4][D2A2^d2] | 
[V:2] [F,,4C,4A,4][F,,2C,2A,2] | 
[V:1] [^D4A4^d4][c2d2a2c'2] | 
[V:2] [F,,4C,4A,4][F,,2C,2A,2] | 
[V:1] [c4^d4a4c'4][B2d2a2b2] | 
[V:2] [F,,6B,,6A,6]- | 
[V:1] [^A4^d4^a4][B2d2=a2b2] | 
[V:2] [F,,4B,,4A,4][F,,2B,,2A,2] | 
[V:1] [B6e6b6] | 
[V:2] [G,,B,,G,][G,B,][G,B,][G,B,][G,B,][G,B,] | 
[V:1] [e6e'6] | 
[V:2] [^G,B,][G,B,][G,B,][G,B,][G,B,][G,B,] | 
[V:1] [Bde] z [=Fc=f] zz2 | 
[V:2] [^G,B,D][G,B,D][A,C][A,C][A,C][A,C] | 
[V:1] [ce=f] z [^Gd^g] zz2 | 
[V:2] [A,CE][A,CE][B,D][B,D][B,D][B,D] | 
[V:1] [^Gde^g] z [Aea] zz2 | 
[V:2] [B,DE][B,DE][CE][CE][CE][CE] | 
[V:1] [ea] z [^Aeg^a] zz2 | 
[V:2] [CE][^CE][CE][CE][CE][CE][K:clef=treble] | 
[V:1] [^ce=a][ce^a].[cea].[cea].[cea].[cea] | 
[V:2] FFFFFF | 
[V:1] [^ce^a][cea][cea][cea][cea][cea] | 
[V:2] FFFFFF | 
[V:1] [bb'][c'c''].[c'c''].[c'c''].[c'c''].[c'c''] | 
[V:2] [B,^DFA][B,DFA][B,DFA][B,DFA][B,DFA][B,DFA] | 
[V:1] [c'c''][c'c''][c'c''][c'c''][c'c''][c'c''] | 
[V:2] [B,^DFA][B,DFA][B,DFA][B,DFA][B,DFA][B,DFA][K:clef=bass] | 
[V:1] [c'2c''2][b4b'4]- | 
[V:2] E,/G/B,/G/ F,/A/B,/A/ G,/B/B,/B/ | 
[V:1] [b2b'2][e4e'4]- | 
[V:2] E,/G/B,/G/ F,/A/B,/A/ G,/B/B,/B/ | 
[V:1] [e2e'2][B4b4]- | 
[V:2] E,/G/B,/G/ F,/A/B,/A/ G,/B/B,/B/ | 
[V:1] [B2b2]e4- | 
[V:2] E,/G/B,/G/ F,/A/B,/A/ G,/B/B,/B/ | 
[V:1] e2c2B2 & A,/G/E/G/ ^A,/G/E/G/ B,/G/E/G/ | 
[V:2] x6 | 
[V:1] B4^d2 & B,/G/E/G/ B,/G/E/G/ B,/A/F/A/ | 
[V:2] x6 | 
[V:1] ec2<!accent!c'2b | 
[V:2] E,,/G,/B,,/G,/ F,,/A,/B,,/A,/ G,,/B,/B,,/B,/ | 
[V:1] z b2<!accent!f2e | 
[V:2] E,,/G,/B,,/G,/ F,,/A,/B,,/A,/ G,,/B,/B,,/B,/ | 
[V:1] z e2<!accent!c2B | 
[V:2] E,,/G,/B,,/G,/ F,,/A,/B,,/A,/ G,,/B,/B,,/B,/ | 
[V:1] z B2<!accent!F2E | 
[V:2] E,,/G,/B,,/G,/ F,,/A,/B,,/A,/ G,,/B,/E,/B,/ | 
[V:1] E2C2B,2[K:clef=bass] | 
[V:2] A,,/G,/E,/G,/ ^A,,/G,/E,/G,/ B,,/G,/E,/G,/ | 
[V:1] B,G,E,C,B,,^D, | 
[V:2] B,,4B,,,2 | 
[V:1] E,2z2z2[K:clef=treble] | 
[V:2] .E,,.[F,,F,].[G,,G,].[A,,A,]!sfz![B,,2B,2]- | 
[V:1] !sfz![C6E6] | 
[V:2] [B,,6B,6] | 
[V:1] =F4c2- & C6 | 
[V:2] [A,,6A,6] | 
[V:1] c4B2 & [^D6^F6A6] | 
[V:2] [B,,6B,6] | 
[V:1] [E2G2B2]z2z2[K:clef=bass] | 
[V:2] .[E,,,E,,].[F,,,F,,].[G,,,G,,].[A,,,A,,][B,,,2B,,2]- | 
[V:1] [C,6E,6] | 
[V:2] [B,,,6B,,6] | 
[V:1] =F,4C2- & C,6 | 
[V:2] [A,,,6A,,6] | 
[V:1] C4B,2 & [^D,6^F,6A,6] | 
[V:2] [B,,,6B,,6] | 
[V:1] z2z2C2- | 
[V:2] z6 | 
[V:1] C4B,2 & [E,6G,6] | 
[V:2] [E,,6B,,6] | 
[V:1] z2z2C2- | 
[V:2] z6 | 
[V:1] C4^D2 & [F,6A,6] | 
[V:2] [B,,,6B,,6] | 
[V:1] [G,2E2][K:clef=treble]z2c2- | 
[V:2] E,,2z2z2 | 
[V:1] c4B2 & [^D6F6A6] | 
[V:2] [B,,6B,6] | 
[V:1] z2z2c2- | 
[V:2] z6 | 
[V:1] c4B2 & [E6G6] | 
[V:2] [E,6B,6] | 
[V:1] z2z2c2- | 
[V:2] z6 | 
[V:1] c4^d2 & [F6A6] | 
[V:2] [B,,6B,6] | 
[V:1] e2z2c'2- & G2z2z2 | 
[V:2] E,2z2z2[K:clef=treble] | 
[V:1] c'4b2 & [^d6f6a6] | 
[V:2] B6 | 
[V:1] z6 | 
[V:2] z2z2c2- | 
[V:1] z2z2[^d2f2] | 
[V:2] c2B2[F2A2] | 
[V:1] [e2g2]>[^d2f2]e2 | 
[V:2] [E2G2]>[F2A2]G2 | 
[V:1] [f2a2]z2[f2a2] | 
[V:2] [=D2F2A2]z2d2 | 
[V:1] [f2a2]>g2[f2a2] | 
[V:2] [c2d2]>[B2d2][A2c2] | 
[V:1] [g2b2]z2b2 | 
[V:2] [G2B2]z2g2 | 
[V:1] b2>a2[g2b2] | 
[V:2] g2>f2e2 | 
[V:1] [a2c'2]!fermata!z2[e2e'2]- | 
[V:2] ^d2!fermata!z2z2[K:clef=bass] | 
[V:1] [e2e'2]>[^d2^d'2][e2e'2] | 
[V:2] [G,,6E,6B,6] | 
[V:1] [C4E4F4][^C2E2F2] | 
[V:2] A,,4^A,,2 | 
[V:1] F2>G2AG & [A,6^D6] | 
[V:2] B,,6 | 
[V:1] F2E2[e2e'2]- | 
[V:2] [C,4G,4][B,,,B,,][A,,,A,,] | 
[V:1] [e2e'2]>[^d2^d'2][e2e'2] | 
[V:2] [G,,,4G,,4][^G,,,2^G,,2] | 
[V:1] [C4E4F4][^C2E2F2] | 
[V:2] [A,,,4A,,4][^A,,,2^A,,2] | 
[V:1] F2>A2GF & [A,6^D6] | 
[V:2] [B,,,6B,,6] | 
[V:1] [G,2E2]!fermata!z2 |]  
[V:2] E,,2!fermata!z2 |]  


